packages/dnb-eufemia/assets/icons/equities_and_mutual_funds_medium.svg

<svg width="24" height="24" viewBox="0 0 24 24" fill="none" xmlns="http://www.w3.org/2000/svg">
<path d="M21.75 0.75L14.4 8.1C14.1489 8.35121 13.8168 8.50516 13.4628 8.53446C13.1089 8.56376 12.756 8.4665 12.467 8.26L9.173 5.909C8.90725 5.7191 8.58678 5.62113 8.26028 5.62997C7.93377 5.63882 7.61908 5.75399 7.364 5.958L0.75 11.25M21.75 0.75H15.75M21.75 0.75V6.75M15 14.25H22.5M15 14.25C14.5858 14.25 14.25 14.5858 14.25 15V16.5C14.25 16.9142 14.5858 17.25 15 17.25H22.5C22.9142 17.25 23.25 16.9142 23.25 16.5V15C23.25 14.5858 22.9142 14.25 22.5 14.25M15 14.25C14.5858 14.25 14.25 13.9142 14.25 13.5V12C14.25 11.5858 14.5858 11.25 15 11.25H22.5C22.9142 11.25 23.25 11.5858 23.25 12V13.5C23.25 13.9142 22.9142 14.25 22.5 14.25M15 20.25H22.5C22.9142 20.25 23.25 20.5858 23.25 21V22.5C23.25 22.9142 22.9142 23.25 22.5 23.25H15C14.5858 23.25 14.25 22.9142 14.25 22.5V21C14.25 20.5858 14.5858 20.25 15 20.25ZM3 20.25H10.5C10.9142 20.25 11.25 20.5858 11.25 21V22.5C11.25 22.9142 10.9142 23.25 10.5 23.25H3C2.58579 23.25 2.25 22.9142 2.25 22.5V21C2.25 20.5858 2.58579 20.25 3 20.25ZM1.5 17.25H9C9.41421 17.25 9.75 17.5858 9.75 18V19.5C9.75 19.9142 9.41421 20.25 9 20.25H1.5C1.08579 20.25 0.75 19.9142 0.75 19.5V18C0.75 17.5858 1.08579 17.25 1.5 17.25ZM3 14.25H10.5C10.9142 14.25 11.25 14.5858 11.25 15V16.5C11.25 16.9142 10.9142 17.25 10.5 17.25H3C2.58579 17.25 2.25 16.9142 2.25 16.5V15C2.25 14.5858 2.58579 14.25 3 14.25ZM13.5 17.25H21C21.4142 17.25 21.75 17.5858 21.75 18V19.5C21.75 19.9142 21.4142 20.25 21 20.25H13.5C13.0858 20.25 12.75 19.9142 12.75 19.5V18C12.75 17.5858 13.0858 17.25 13.5 17.25Z" stroke="black" stroke-width="1.5" stroke-linecap="round" stroke-linejoin="round"/>
</svg>

<svg width="24" height="24" viewBox="0 0 24 24" fill="none" xmlns="http://www.w3.org/2000/svg"><path d="M21.75.75 14.4 8.1a1.5 1.5 0 0 1-1.933.16L9.173 5.909a1.5 1.5 0 0 0-1.809.049L.75 11.25m21-10.5h-6m6 0v6M15 14.25h7.5m-7.5 0a.75.75 0 0 0-.75.75v1.5c0 .414.336.75.75.75h7.5a.75.75 0 0 0 .75-.75V15a.75.75 0 0 0-.75-.75m-7.5 0a.75.75 0 0 1-.75-.75V12a.75.75 0 0 1 .75-.75h7.5a.75.75 0 0 1 .75.75v1.5a.75.75 0 0 1-.75.75m-7.5 6h7.5a.75.75 0 0 1 .75.75v1.5a.75.75 0 0 1-.75.75H15a.75.75 0 0 1-.75-.75V21a.75.75 0 0 1 .75-.75Zm-12 0h7.5a.75.75 0 0 1 .75.75v1.5a.75.75 0 0 1-.75.75H3a.75.75 0 0 1-.75-.75V21a.75.75 0 0 1 .75-.75Zm-1.5-3H9a.75.75 0 0 1 .75.75v1.5a.75.75 0 0 1-.75.75H1.5a.75.75 0 0 1-.75-.75V18a.75.75 0 0 1 .75-.75Zm1.5-3h7.5a.75.75 0 0 1 .75.75v1.5a.75.75 0 0 1-.75.75H3a.75.75 0 0 1-.75-.75V15a.75.75 0 0 1 .75-.75Zm10.5 3H21a.75.75 0 0 1 .75.75v1.5a.75.75 0 0 1-.75.75h-7.5a.75.75 0 0 1-.75-.75V18a.75.75 0 0 1 .75-.75Z" stroke="#000" stroke-width="1.5" stroke-linecap="round" stroke-linejoin="round"/></svg>
